X: 15052
T: O as I was Kiss'd th'Streen
%R: jig
B: James Oswald "The Caledonian Pocket Companion" v.1 b.5 p.5 #2
S: https://ia800501.us.archive.org/18/items/caledonianpocket01rugg/caledonianpocket01rugg_bw.pdf
Z: 2020 John Chambers <jc:trillian.mit.edu>
M: 6/8
L: 1/8
K: Ador
|: "_Brisk"\
A2A ABd | edB A2d | BAG GAB | dBA G2B |\
cBc dcd | ede a2g | edB ABd | e2A A3 :|
|:\
aAA ABA | aAA A2f | gGG GAB | dcd G2B |\
cec dcd | ede g2e | dBG ABd | e2A A3 :|


